X:525
T: First Cousin (of "The Gallant Tipperary Boys")
S: "Johnny O'Leary of Sliabh Luachra" (#130)
Z: B.Black
L: 1/8
M: 12/8
R: slide
Q: 360
K: D
AdA DFA BAF DFA|d2f ede faa def|
g2f g2b afd Bcd|e2d e2d cAA BdB|
AdA DFA BAF DFA|d2f ede faa def|
g2f g2b afd BBA|Bcd efe d3 d3||
eeA eeg f2d f2a|g2e fed edB ABd|
e2A e2g fed faf|gfe dcB A3 A3 :|

